X: 1191
T: Kalbimde Açılmış Dağılan...
C: İsak Varon
O: Turkey
F: http://compmusic.upf.edu/node/140
N: evic--sarki--turkaksagi--kalbimde_acilmis--isak_varon
N: makam= evic
N: form= sarki
N: usul= turkaksagi = 5/8
M: 5/8
L: 1/16
K: C _1/4B ^f ^c 
Q: 1/4=108
%%MIDI tuningsystem comma53
f4 g2f2 ^3/4e2 | d3/2c/ d^3/4ef4z2  | \
w:  ARANAĞME  |   | 
^3/4e2f2 g2f2 e2 | ^3/4ed dcd4z2  | 
w:   |   | 
d2a2 g2^1/4f2 e2 | d=c dec2 B2A2  | A2B2 =c2B2 A2 | \
w:   |   |   | 
AG GFF4z2  | 
w:   | 
f4 g2f2 ^3/4e2 | d3/2c/ d^3/4ef4z2  | \
w:  ARANAĞME  |   | 
^3/4e2f2 g2f2 e2 | ^3/4ed dcd4z2  | 
w:   |   | 
d2a2 g2^1/4f2 e2 | d=c dec2 B2A2  | A2B2 =c2B2 A2 | \
w:   |   |   | 
AG GFF4z2  | 
w:   | 
d4 f4 a2 | ag f^3/4ef6  | ^3/4efef agfe d2 | \
w:  Kal bim  |  de  *  a *  çıl  |  mış   | 
e2 =f2ed c=Bc2  | 
w:  da ğı lan   | 
d2f^3/4e f4 a2 | ag abag f^3/4e{g}f2  | \
w:  bir   |   | 
g2a2 bag2 gf | 
w:  ku ru  gül  | 
f2 ^3/4ed^1/4cB AGF2  | d4 f4 a2 | ag f^3/4ef6  | \
w:  dün   SAZ  |  Kal bim  |  de  *  a *  çıl  | 
^3/4efef agfe d2 | 
w:  mış   | 
e2 =f2ed c=Bc2  | d2f^3/4e f4 a2 | ag abag f^3/4e{g}f2  | 
w:  da ğı lan   |  bir   |   | 
g2a2 bag2 gf | f4ag f^3/4e{g}f2  | e3/2^3/4f/ef g4 fe | \
w:  ku ru  gül  |  dün   SAZ  |  Bir  *  *  *  tel   | 
d2 {d}a2ag =fed2  | 
w:  sa *  çı nı   | 
e3/2d/{e}=cd e=fed dc | =c_2/4B BAc3/2B/ A4  | \
w:  is  |  te *  di *  ğim   | 
A/G/A/B/AG F4 d2 | 
w:  gün   | 
d=c dec2 B2AG  | A2B2 =cBAG GF | F4ag f^3/4e{g}f2  | 
w:   |  ba na  gül  |  dün   SAZ  | 
e3/2^3/4f/ef g4 fe | d2 {d}a2ag =fed2  | \
w:  Bir  *  *  *  tel   |  sa *  çı nı   | 
e3/2d/{e}=cd e=fed dc | 
w:  is  | 
=c_2/4B BAc3/2B/ A4  | A/G/A/B/AG F4 d2 | \
w:  te *  di *  ğim   |  gün   | 
d=c dec2 B2AG  | 
w:   | 
A2B2 =cBAG GF | F4a3/2g/ fga2  | g3a a4 g^3/4f | \
w:  ba na  gül  |  dün   SAZ  |  Ver *  mem   | 
^3/4fe eda4z2  | 
w:  di *  ye *  rek   | 
d2f2 e4 d2 | (3c=Bc dBA4z2  | d2f{g}^3/4e f4 a2 | \
w:  hem   |  be *  *  ni  *  hem   |  ken  | 
ag abag f^3/4e{g}f2  | 
w:   | 
g2a2 bag2 gf | f4ag fga2  | g3a a4 g^3/4f | \
w:  di ni  üz  |  dün   SAZ  |  Ver *  mem   | 
^3/4fe eda4z2  | 
w:  di *  ye *  rek   | 
d2f2 e4 d2 | (3c=Bc dBA4z2  | d2f{g}^3/4e f4 a2 | \
w:  hem   |  be *  *  ni  *  hem   |  ken  | 
ag abag f^3/4e{g}f2  | 
w:   | 
g2a2 bag2 gf | f4ag f^3/4ef2  | e3/2^3/4f/ef g4 fe | \
w:  di ni  üz  |  dün   SAZ  |  Bir  *  *  *  tel   | 
d2 {d}a2ag =fed2  | 
w:  sa *  çı nı   | 
e3/2d/{e}=cd e=fed dc | =c_2/4B BAc3/2B/ A4  | \
w:  is  |  te *  di *  ğim   | 
A/G/A/B/AG F4 d2 | 
w:  gün   | 
d=c dec2 B2AG  | A2B2 =cBAG GF | F4ag f^3/4e{g}f2  | 
w:   |  ba na  gül  |  dün   SAZ  | 
e3/2^3/4f/ef g4 fe | d2 {d}a2ag =fed2  | \
w:  Bir  *  *  *  tel   |  sa *  çı nı   | 
e3/2d/{e}=cd e=fed dc | 
w:  is  | 
=c_2/4B BAc3/2B/ A4  | A/G/A/B/AG F4 d2 | \
w:  te *  di *  ğim   |  gün   | 
d=c dec2 B2AG  | 
w:   | 
A2B2 =cBAG GF | F4|
w:  ba na  gül  |  dün    | 


